outline/svg/local_drink.svg

<svg xmlns="http://www.w3.org/2000/svg" width="24" height="24"><path fill="none" d="M0 0h24v24H0V0z"/><g fill="currentColor"><path d="M3 2l2.01 18.23C5.13 21.23 5.97 22 7 22h10c1.03 0 1.87-.77 1.99-1.77L21 2H3zm14 18l-10 .01L5.89 10H18.1L17 20zm1.33-12H5.67l-.44-4h13.53l-.43 4z"/><path d="M12 19c1.66 0 3-1.34 3-3 0-2-3-5.4-3-5.4S9 14 9 16c0 1.66 1.34 3 3 3zm0-5.09c.59.91 1 1.73 1 2.09 0 .55-.45 1-1 1s-1-.45-1-1c0-.37.41-1.19 1-2.09z"/></g></svg>

<?xml version="1.0" encoding="utf-8"?>
<!-- Generator: Adobe Illustrator 19.1.0, SVG Export Plug-In . SVG Version: 6.00 Build 0)  -->
<svg version="1.1" xmlns="http://www.w3.org/2000/svg" xmlns:xlink="http://www.w3.org/1999/xlink" x="0px" y="0px" width="24px"
	 height="24px" viewBox="0 0 24 24" enable-background="new 0 0 24 24" xml:space="preserve">
<g id="Bounding_Boxes">
	<path fill="none" d="M0,0h24v24H0V0z"/>
</g>
<g id="Outline" fill="currentColor">
	<g id="ui_x5F_spec_x5F_header">
	</g>
	<g>
		<path d="M3,2l2.01,18.23C5.13,21.23,5.97,22,7,22h10c1.03,0,1.87-0.77,1.99-1.77L21,2H3z M17,20L7,20.01L5.89,10H18.1L17,20z
			 M18.33,8H5.67L5.23,4h13.53L18.33,8z"/>
		<path d="M12,19c1.66,0,3-1.34,3-3c0-2-3-5.4-3-5.4S9,14,9,16C9,17.66,10.34,19,12,19z M12,13.91c0.59,0.91,1,1.73,1,2.09
			c0,0.55-0.45,1-1,1s-1-0.45-1-1C11,15.63,11.41,14.81,12,13.91z"/>
	</g>
</g>
</svg>
